X: 1
T: Ramnee Ceilidh
M: 4/4
L: 1/8
R: reel
K: Dmaj
|:dBBd ~A2BA|feef e2de|faaf e2fe|d2ed BdBA|
dBBd ~A2BA|feef e2de|faaf e2fe|1 dBAB d2-d2:|2 dBAB d3e||
|:~f3A Bde2|-ed~d2 edBd|~f3A Bde2|-edfe d3e|
~f3A Bde2|-ed~d2 edBd|faaf e2fe|1dBAB d2de:|2 dBAB d4||
